data/lut.cube
TITLE “A”7S Slog2 to Film Like”
# Created by Alister Chapman 
LUT_3D_SIZE 5
0 0 0
0.149538 0 0
0.449104 0 0
0.803891 0 0
1 0 0
0 0.121828 0
0.104982 0.0951858 0
0.454704 0 0
0.815656 0 0
1 0 0
0 0.400122 0
0 0.400214 0.00256352
0.393362 0.363882 0
0.877256 0.0132906 0
1 0 0
0 0.866926 0
0 0.864149 0
0 0.856306 0
0.837964 0.80296 0
1 0.0736858 0
0 1 0
0 1 0
0 1 0
0 1 0
1 1 0
0 0 0.0950637
0.144839 0 0.0961318
0.448157 0 0.0844434
0.803891 0 0
1 0 0
0 0.124208 0.102052
0.0955215 0.0976425 0.0998398
0.453239 0 0.099794
0.815869 0 0.00813306
1 0 0
0 0.399908 0.102602
0 0.402304 0.109438
0.388296 0.362173 0.0899367
0.876356 0.0147097 0.0561074
1 0 0
0 0.867536 0.0861219
0 0.862943 0.079469
0 0.856336 0.0638132
0.835294 0.800931 0
1 0.0741436 0
0 1 0
0 1 0
0 1 0
0 1 0
1 1 0
0 0 0.330983
0.118471 0 0.335622
0.447379 0 0.336431
0.8047 0 0.302876
1 0 0
0 0.136263 0.340032
0.0559854 0.110811 0.34023
0.4477 0 0.351247
0.81709 0 0.316655
1 0 0
0 0.404929 0.355245
0 0.411063 0.368368
0.374212 0.362509 0.352163
0.874205 0.0228733 0.379416
1 0 0.0158541
0 0.865644 0.420783
0 0.858732 0.414176
0 0.855848 0.412589
0.821332 0.789761 0.342733
1 0.0796521 0.204669
0 1 0.126085
0 1 0.132753
0 1 0.165454
0 1 0.284993
1 1 0
0 0.0474556 0.703441
0 0.0252232 0.712551
0.416327 0 0.722637
0.809522 0 0.698314
1 0 0.541802
0 0.176516 0.713741
0 0.159823 0.717525
0.402869 0.0438239 0.727214
0.823178 0 0.714397
1 0 0.553384
0 0.422553 0.731075
0 0.429786 0.745907
0.321324 0.377325 0.728618
0.887419 0.0861067 0.789899
1 0 0.605875
0 0.873503 0.819577
0 0.867033 0.814298
0 0.865202 0.817792
0.799115 0.781155 0.762005
1 0.120333 0.890318
0 1 0.879744
0 1 0.889342
0 1 0.935393
0 1 1
1 1 0.686656
0 0.22089 1
0 0.216815 1
0 0.145327 1
0.830945 0 1
1 0 0.965225
0 0.299825 1
0 0.296712 1
0 0.247944 1
0.856031 0 1
1 0 0.977584
0 0.495491 1
0 0.494682 1
0 0.48957 1
0.84538 0.27042 1
1 0 1
0 0.889525 1
0 0.892912 1
0 0.908415 1
0.72636 0.803052 1
1 0.331075 1
0 1 1
0 1 1
0 1 1
0 1 1
1 1 1
