data/lut.cube
TITLE “A”7S Slog2 to Film Like”
# Created by Alister Chapman 
LUT_3D_SIZE 9
0 0 0
0.0326543 0 0
0.149538 0 0
0.293339 0 0
0.449104 0 0
0.654124 0 0
0.803891 0 0
0.970382 0 0
1 0 0
0 0.0281834 0
0.0109865 0.0192264 0
0.138781 0.00273136 0
0.293812 0 0
0.453162 0 0
0.657542 0 0
0.80795 0 0
0.974319 0 0
1 0 0
0 0.121828 0
0 0.113146 0
0.104982 0.0951858 0
0.27892 0.057557 0
0.454704 0 0
0.665599 0 0
0.815656 0 0
0.981598 0 0
1 0 0
0 0.25127 0.00172427
0 0.246632 0.0024567
0.017319 0.236088 0.00213626
0.231601 0.21088 0
0.429068 0.157641 0
0.679911 0 0
0.834485 0 0
0.997772 0 0
1 0 0
0 0.400122 0
0 0.398169 0
0 0.400214 0.00256352
0.113313 0.398047 0.00689708
0.393362 0.363882 0
0.643336 0.298848 0
0.877256 0.0132906 0
1 0 0
1 0 0
0 0.617197 0
0 0.619699 0
0 0.616129 0
0 0.600763 0
0.226596 0.578454 0
0.594293 0.547173 0
0.859922 0.482689 0
1 0.0589303 0
1 0 0
0 0.866926 0
0 0.867933 0
0 0.864149 0
0 0.85655 0
0 0.856306 0
0.419867 0.825193 0
0.837964 0.80296 0
1 0.739055 0
1 0.0736858 0
0 1 0
0 1 0
0 1 0
0 1 0
0 1 0
0 1 0
0.636515 1 0
1 0.984268 0
1 0.914733 0
0 1 0
0 1 0
0 1 0
0 1 0
0 1 0
0 1 0
0 1 0
0.862837 1 0
1 1 0
0 0 0.0293736
0.0292363 0 0.0286412
0.147799 0 0.0298009
0.292988 0 0.0269474
0.448676 0 0.0169528
0.654032 0 0
0.803998 0 0
0.970535 0 0
1 0 0
0 0.0292515 0.0309758
0.0075227 0.0205081 0.0318608
0.136446 0.00378424 0.0337835
0.293004 0 0.0322271
0.453101 0 0.024567
0.657496 0 0
0.808072 0 0
0.974472 0 0
1 0 0
0 0.122438 0.0363165
0 0.114015 0.0362402
0.101457 0.0959945 0.0340887
0.277195 0.0581826 0.03122
0.454368 0 0.0318456
0.665843 0 0
0.815839 0 0
0.981765 0 0
1 0 0
0 0.251301 0.040177
0 0.246921 0.0410315
0.0131838 0.236133 0.0404974
0.229313 0.211093 0.0325322
0.428168 0.158007 0.0201419
0.6795 0 0.0149386
0.834806 0 0
0.997971 0 0
1 0 0
0 0.400137 0.0348821
0 0.398199 0.0344244
0 0.401144 0.0399786
0.10985 0.398184 0.0430915
0.39176 0.36347 0.0220493
0.642222 0.298589 0
0.876844 0.0136873 0
1 0 0
1 0 0
0 0.617823 0.0320439
0 0.619852 0.0344701
0 0.615625 0.0308232
0 0.600687 0.0174563
0.224689 0.578531 0
0.593729 0.547326 0
0.859724 0.482811 0
1 0.0606851 0
1 0 0
0 0.867292 0.0232395
0 0.867765 0.0230411
0 0.863828 0.0178836
0 0.856519 0.00784314
0 0.856413 0.00199893
0.418982 0.825208 0
0.837064 0.802289 0
1 0.738354 0
1 0.0737469 0
0 1 0
0 1 0
0 1 0
0 1 0
0 1 0
0 1 0
0.634699 1 0
1 0.983139 0
1 0.913664 0
0 1 0
0 1 0
0 1 0
0 1 0
0 1 0
0 1 0
0 1 0
0.861494 1 0
1 1 0
0 0 0.0950637
0.0236057 0 0.0946059
0.144839 0 0.0961318
0.292653 0 0.0938888
0.448157 0 0.0844434
0.653666 0 0.0512551
0.803891 0 0
0.970733 0 0
1 0 0
0 0.0318151 0.0969406
0.00120546 0.0230716 0.0978866
0.132296 0.00581369 0.0994583
0.291539 0 0.0984207
0.452735 0 0.0925612
0.657069 0 0.0558633
0.808011 0 0.00231937
0.974685 0 0
1 0 0
0 0.124208 0.102052
0 0.11606 0.101976
0.0955215 0.0976425 0.0998398
0.274586 0.0601511 0.0977951
0.453239 0 0.099794
0.666026 0 0.066743
0.815869 0 0.00813306
0.981994 0 0
1 0 0
0 0.252155 0.105928
0 0.247486 0.106752
0.00611887 0.236637 0.106325
0.225162 0.211383 0.0990463
0.426001 0.158343 0.0881819
0.678691 0 0.0846571
0.835142 0 0.023209
0.99826 0 0
1 0 0
0 0.399908 0.102602
0 0.39881 0.103151
0 0.402304 0.109438
0.102632 0.397757 0.111482
0.388296 0.362173 0.0899367
0.639719 0.297612 0.061738
0.876356 0.0147097 0.0561074
1 0 0
1 0 0
0 0.618418 0.101808
0 0.619837 0.103609
0 0.614679 0.0990005
0 0.600183 0.0858167
0.220706 0.578058 0.0667582
0.592279 0.547204 0.0451667
0.859327 0.482979 0.0231632
1 0.063447 0
1 0 0
0 0.867536 0.0861219
0 0.867124 0.0849775
0 0.862943 0.079469
0 0.856382 0.0699779
0 0.856336 0.0638132
0.417166 0.824964 0.0197604
0.835294 0.800931 0
1 0.736904 0
1 0.0741436 0
0 1 0.0320745
0 1 0.034165
0 1 0.0358129
0 1 0.0407111
0 1 0.0517586
0 1 0.0483101
0.631327 1 0
1 0.981048 0
1 0.911681 0
0 1 0
0 1 0
0 1 0
0 1 0
0 1 0
0 1 0
0 1 0
0.859007 1 0
1 1 0
0 0 0.197086
0.0117647 0 0.197787
0.138689 0 0.200443
0.291875 0 0.200107
0.448463 0 0.195483
0.653956 0 0.171145
0.803815 0 0.138872
0.970184 0 0.00794995
1 0 0
0 0.0375677 0.200092
0 0.0289616 0.201389
0.123278 0.0112001 0.203479
0.288991 0 0.204776
0.452934 0 0.204318
0.657542 0 0.176669
0.80798 0 0.142473
0.974166 0 0.0106966
1 0 0
0 0.12871 0.205768
0 0.120729 0.206516
0.0838026 0.102342 0.204929
0.269551 0.0649424 0.205264
0.45214 0 0.211887
0.668345 0 0.191012
0.81593 0 0.149401
0.981552 0 0.0155184
1 0 0
0 0.254719 0.211627
0 0.250172 0.21294
0 0.238743 0.212848
0.218494 0.213413 0.208225
0.423117 0.160845 0.201785
0.67747 0 0.209033
0.835691 0 0.166796
0.998001 0 0.0263828
1 0 0
0 0.401526 0.215488
0 0.401907 0.217914
0 0.406104 0.225925
0.0881208 0.398169 0.226673
0.383017 0.361349 0.208728
0.635798 0.297337 0.190585
0.87451 0.0160983 0.199237
1 0 0.0517281
1 0 0
0 0.620508 0.230991
0 0.619776 0.231113
0 0.613565 0.226276
0 0.6 0.216114
0.212573 0.578027 0.201465
0.589212 0.547036 0.187137
0.857771 0.482582 0.167865
1 0.0688945 0.137148
1 0 0
0 0.866682 0.230625
0 0.865034 0.22826
0 0.860563 0.222446
0 0.855253 0.214374
0 0.855741 0.208637
0.412802 0.824323 0.163943
0.830488 0.796948 0.106401
1 0.73341 0.0384527
1 0.0756542 0
0 1 0.164904
0 1 0.166812
0 1 0.167437
0 1 0.175341
0 1 0.181994
0 1 0.178271
0.623972 1 0
1 0.976379 0
1 0.907301 0
0 1 0
0 1 0
0 1 0
0 1 0
0 1 0
0 1 0
0 1 0.0132296
0.85362 1 0
1 1 0
0 0 0.330983
0 0 0.333577
0.118471 0 0.335622
0.284718 0 0.3364
0.447379 0 0.336431
0.653513 0 0.316472
0.8047 0 0.302876
0.970108 0 0.236576
1 0 0
0 0.0468147 0.334112
0 0.0384527 0.335897
0.0976272 0.0204166 0.337484
0.278294 0 0.341085
0.450019 0 0.34406
0.657557 0 0.323018
0.808942 0 0.307683
0.974136 0 0.240131
1 0 0
0 0.136263 0.340032
0 0.128817 0.341009
0.0559854 0.110811 0.34023
0.255344 0.0736858 0.341848
0.4477 0 0.351247
0.669749 0 0.339986
0.81709 0 0.316655
0.981598 0 0.246723
1 0 0
0 0.259159 0.3458
0 0.254429 0.347387
0 0.24303 0.347616
0.204562 0.217609 0.345129
0.418479 0.168002 0.343481
0.67454 0 0.35668
0.837736 0 0.33901
0.998199 0 0.261662
1 0 0
0 0.404929 0.355245
0 0.406821 0.359457
0 0.411063 0.368368
0.0562448 0.400687 0.368063
0.374212 0.362509 0.352163
0.630945 0.299809 0.34197
0.874205 0.0228733 0.379416
1 0 0.29633
1 0 0.0158541
0 0.622644 0.381445
0 0.620233 0.380346
0 0.613703 0.376043
0 0.601312 0.368811
0.194049 0.579705 0.359228
0.584497 0.54844 0.356786
0.855817 0.483513 0.369619
1 0.0725872 0.391684
1 0 0.0654154
0 0.865644 0.420783
0 0.863447 0.418677
0 0.858732 0.414176
0 0.855375 0.411383
0 0.855848 0.412589
0.405295 0.82501 0.382116
0.821332 0.789761 0.342733
1 0.724529 0.31458
1 0.0796521 0.204669
0 1 0.436377
0 1 0.437781
0 1 0.439048
0 1 0.455161
0 1 0.459022
0 1 0.463935
0.606149 1 0.280919
1 0.964691 0.158083
1 0.897246 0
0 1 0.126085
0 1 0.12842
0 1 0.132753
0 1 0.142489
0 1 0.165454
0 1 0.239139
0 1 0.284993
0.841291 1 0
1 1 0
0 0.01178 0.50045
0 0.00399786 0.503853
0.0593576 0 0.505776
0.25771 0 0.509117
0.439933 0 0.510735
0.651606 0 0.491081
0.806851 0 0.479088
0.972915 0 0.428824
1 0 0.272862
0 0.0638285 0.50277
0 0.0558175 0.505013
0.0347601 0.0386511 0.506783
0.247089 0.00149538 0.513268
0.440726 0 0.516869
0.656397 0 0.498817
0.811246 0 0.484047
0.976974 0 0.433158
1 0 0.276616
0 0.150454 0.50901
0 0.143832 0.510323
0 0.128969 0.511513
0.220203 0.0915084 0.512764
0.435966 0.00939956 0.522148
0.668177 0 0.516365
0.81973 0 0.493584
0.984482 0 0.441062
1 0 0.283528
0 0.267918 0.512825
0 0.263142 0.514183
0 0.252506 0.514992
0.171405 0.228229 0.515785
0.410361 0.185931 0.520134
0.665461 0.0130007 0.527428
0.841947 0 0.51809
1 0 0.458549
1 0 0.298833
0 0.41149 0.525719
0 0.414374 0.531212
0 0.418204 0.539651
0 0.407752 0.539498
0.357198 0.367193 0.52195
0.621851 0.307057 0.512749
0.881651 0.0458381 0.563119
1 0 0.49984
1 0 0.332219
0 0.626383 0.552773
0 0.623667 0.551431
0 0.617075 0.547387
0 0.605478 0.541192
0.142031 0.585412 0.533501
0.575647 0.553353 0.531456
0.854795 0.488762 0.548287
1 0.0807355 0.601236
1 0 0.408927
0 0.867994 0.597635
0 0.865751 0.595651
0 0.861067 0.59144
0 0.858457 0.589776
0 0.859617 0.592859
0.38764 0.828748 0.566827
0.812787 0.785367 0.536477
1 0.718593 0.547967
1 0.0913558 0.603906
0 1 0.667247
0 1 0.66836
0 1 0.670588
0 1 0.691081
0 1 0.695445
0 1 0.707942
0.584329 1 0.538094
0.995514 0.952361 0.487877
1 0.877516 0.424292
0 1 0.584482
0 1 0.587655
0 1 0.593545
0 1 0.606851
0 1 0.637461
0 1 0.728511
0 1 0.800305
0.813153 1 0.395972
1 1 0.239567
0 0.0474556 0.703441
0 0.0401007 0.70663
0 0.0252232 0.712551
0.187594 0 0.717784
0.416327 0 0.722637
0.644236 0 0.708309
0.809522 0 0.698314
0.976425 0 0.663005
1 0 0.541802
0 0.0974899 0.706722
0 0.0899977 0.7093
0 0.0753796 0.713161
0.172473 0.0373541 0.717708
0.414618 0 0.72723
0.651453 0 0.719463
0.814145 0 0.703777
0.980529 0 0.667613
1 0 0.545846
0 0.176516 0.713741
0 0.171328 0.715343
0 0.159823 0.717525
0.137453 0.12311 0.716701
0.402869 0.0438239 0.727214
0.657755 0 0.732754
0.823178 0 0.714397
0.988159 0 0.676173
1 0 0.553384
0 0.28571 0.714839
0 0.28159 0.716045
0 0.272358 0.717296
0.0460365 0.252949 0.723598
0.385901 0.216815 0.736721
0.644984 0.043946 0.734371
0.849531 0 0.744335
1 0 0.69514
1 0 0.569802
0 0.422553 0.731075
0 0.425071 0.736339
0 0.429786 0.745907
0 0.422477 0.749569
0.321324 0.377325 0.728618
0.605402 0.322438 0.725093
0.887419 0.0861067 0.789899
1 0 0.740093
1 0 0.605875
0 0.634516 0.763439
0 0.632517 0.762966
0 0.626368 0.759457
0 0.614786 0.753918
0.00354009 0.599451 0.752224
0.553063 0.562478 0.748135
0.850294 0.497612 0.770413
1 0.103471 0.833265
1 0 0.68864
0 0.873503 0.819577
0 0.87158 0.818082
0 0.867033 0.814298
0 0.863539 0.812406
0 0.865202 0.817792
0.316274 0.838575 0.799191
0.799115 0.781155 0.762005
1 0.714321 0.788174
1 0.120333 0.890318
0 1 0.911238
0 1 0.913161
0 1 0.915358
0 1 0.934813
0 1 0.943206
0 1 0.960174
0.547326 1 0.790372
0.98175 0.944244 0.752026
1 0.868864 0.718654
0 1 0.879744
0 1 0.883101
0 1 0.889342
0 1 0.903365
0 1 0.935393
0 1 1
0 1 1
0.790311 1 0.718181
1 1 0.686656
0 0.120668 0.858869
0 0.113985 0.862104
0 0.101152 0.867506
0 0.0700847 0.877943
0.353841 0 0.886763
0.631128 0 0.887205
0.820371 0 0.868574
0.990921 0 0.836133
1 0 0.727733
0 0.165835 0.863539
0 0.160647 0.866209
0 0.149355 0.870634
0 0.118059 0.87866
0.347417 0.0333715 0.8869
0.634043 0 0.893782
0.825513 0 0.874662
0.995148 0 0.840909
1 0 0.731991
0 0.226413 0.872969
0 0.223056 0.875135
0 0.216281 0.878294
0 0.195254 0.881315
0.323842 0.11281 0.876524
0.634867 0 0.901122
0.835996 0 0.886915
1 0 0.849775
1 0 0.739834
0 0.323796 0.871321
0 0.32195 0.872511
0 0.315908 0.873167
0 0.299809 0.877104
0.298283 0.268544 0.900343
0.625513 0.135744 0.906218
0.868772 0 0.923583
1 0 0.869657
1 0 0.756985
0 0.450004 0.887175
0 0.448783 0.888395
0 0.452277 0.896788
0 0.459037 0.914092
0.158419 0.415122 0.894118
0.575814 0.360098 0.890898
0.867887 0.146227 0.931334
1 0 0.917861
1 0 0.79498
0 0.65037 0.915724
0 0.654124 0.920821
0 0.654841 0.924392
0 0.641276 0.916884
0 0.628794 0.917967
0.502647 0.589426 0.910506
0.847013 0.523079 0.930037
1 0.174533 0.993988
1 0 0.882292
0 0.887434 0.978897
0 0.891249 0.983169
0 0.889769 0.982544
0 0.881941 0.976455
0 0.883635 0.982132
0.0795758 0.865278 0.972549
0.783307 0.787457 0.916442
1 0.722072 0.94406
1 0.191348 1
0 1 1
0 1 1
0 1 1
0 1 1
0 1 1
0 1 1
0.476829 1 0.961334
0.97203 0.94696 0.92314
1 0.870832 0.916823
0 1 1
0 1 1
0 1 1
0 1 1
0 1 1
0 1 1
0 1 1
0.750652 1 0.934081
1 1 0.923964
0 0.22089 1
0 0.220279 1
0 0.216815 1
0 0.203876 1
0 0.145327 1
0.550362 0 1
0.830945 0 1
1 0 1
1 0 0.965225
0 0.251209 1
0 0.249989 1
0 0.246632 1
0 0.23653 1
0 0.188647 1
0.543252 0.00935378 1
0.8392 0 1
1 0 1
1 0 0.969573
0 0.299825 1
0 0.299077 1
0 0.296712 1
0 0.287587 1
0 0.247944 1
0.537728 0.100816 1
0.856031 0 1
1 0 1
1 0 0.977584
0 0.374136 1
0 0.374411 1
0 0.374228 1
0 0.370016 1
0 0.359899 1
0.506294 0.252705 1
0.866865 0 1
1 0 1
1 0 0.995148
0 0.495491 1
0 0.495613 1
0 0.494682 1
0 0.489265 1
0 0.48957 1
0.459358 0.425208 1
0.84538 0.27042 1
1 0 1
1 0 1
0 0.668391 1
0 0.667948 1
0 0.668116 1
0 0.685237 1
0 0.670375 1
0.312825 0.63537 1
0.825208 0.565026 1
1 0.315053 1
1 0 1
0 0.889525 1
0 0.89012 1
0 0.892912 1
0 0.915496 1
0 0.908415 1
0 0.905394 1
0.72636 0.803052 1
1 0.737606 1
1 0.331075 1
0 1 1
0 1 1
0 1 1
0 1 1
0 1 1
0 1 1
0.125353 1 1
0.951247 0.954162 1
1 0.87953 1
0 1 1
0 1 1
0 1 1
0 1 1
0 1 1
0 1 1
0 1 1
0.659739 1 1
1 1 1
