data/lut.cube
TITLE “A”7S Slog2 to Film Like”
# Created by Alister Chapman 
LUT_3D_SIZE 33
0 0 0
0 0 0
0 0 0
0.0119936 0 0
0.0326543 0 0
0.0570687 0 0
0.0859236 0 0
0.118181 0 0
0.149538 0 0
0.179538 0 0
0.213016 0 0
0.256779 0 0
0.293339 0 0
0.324254 0 0
0.361913 0 0
0.404257 0 0
0.449104 0 0
0.496849 0 0
0.545647 0 0
0.596597 0 0
0.654124 0 0
0.693858 0 0
0.729503 0 0
0.765759 0 0
0.803891 0 0
0.843595 0 0
0.884855 0 0
0.92723 0 0
0.970382 0 0
1 0 0
1 0 0
1 0 0
1 0 0
0 0 0
0 0 0
0 0 0
0.00646983 0 0
0.0276493 0 0
0.0522927 0 0
0.0815137 0 0
0.114794 0 0
0.147646 0 0
0.178393 0 0
0.211963 0 0
0.256168 0 0
0.294148 0 0
0.325261 0 0
0.362493 0 0
0.404791 0 0
0.449638 0 0
0.497414 0 0
0.546304 0 0
0.597284 0 0
0.654917 0 0
0.694835 0 0
0.73048 0 0
0.766735 0 0
0.804852 0 0
0.844556 0 0
0.885817 0 0
0.928191 0 0
0.971328 0 0
1 0 0
1 0 0
1 0 0
1 0 0
0 0 0
0 0 0
0 0 0
0.000656138 0 0
0.0225834 0 0
0.0475013 0 0
0.0773632 0 0
0.111742 0 0
0.145556 0 0
0.177401 0 0
0.210651 0 0
0.25507 0 0
0.294591 0 0
0.325933 0 0
0.363638 0 0
0.405722 0 0
0.450401 0 0
0.498085 0 0
0.547021 0 0
0.597971 0 0
0.655802 0 0
0.695827 0 0
0.731472 0 0
0.767727 0 0
0.805829 0 0
0.845518 0 0
0.886778 0 0
0.929137 0 0
0.97229 0 0
1 0 0
1 0 0
1 0 0
1 0 0
0 0.0127718 0
0 0.0107118 0
0 0.00865187 0
0 0.00640879 0
0.0174563 0.00381476 0
0.0429084 0.000656138 0
0.0727398 0 0
0.108019 0 0
0.142672 0 0
0.175631 0 0
0.209064 0 0
0.253468 0 0
0.294362 0 0
0.326329 0 0
0.36408 0 0
0.406867 0 0
0.451591 0 0
0.498894 0 0
0.547845 0 0
0.598688 0 0
0.656611 0 0
0.696818 0 0
0.732479 0 0
0.768719 0 0
0.806821 0 0
0.846494 0 0
0.887739 0 0
0.930098 0 0
0.973236 0 0
1 0 0
1 0 0
1 0 0
1 0 0
0 0.0281834 0
0 0.0260777 0
0 0.0241703 0
0 0.021973 0
0.0109865 0.0192264 0
0.0365911 0.0160067 0
0.0665293 0.0122835 0
0.102388 0.00791943 0
0.138781 0.00273136 0
0.173053 0 0
0.206592 0 0
0.251148 0 0
0.293812 0 0
0.326314 0 0
0.364263 0 0
0.407813 0 0
0.453162 0 0
0.500267 0 0
0.548974 0 0
0.599573 0 0
0.657542 0 0
0.697978 0 0
0.733639 0 0
0.769863 0 0
0.80795 0 0
0.847608 0 0
0.888838 0 0
0.931197 0 0
0.974319 0 0
1 0 0
1 0 0
1 0 0
1 0 0
0 0.0462654 0
0 0.0440833 0
0 0.0421149 0
0 0.0400549 0
0.00297551 0.0373236 0
0.0290227 0.0337987 0
0.0591745 0.0300603 0
0.0943923 0.0255283 0
0.132723 0.0204929 0
0.168719 0.0140993 0
0.203555 0.00683604 0
0.248035 0 0
0.292699 0 0
0.325887 0 0
0.364248 0 0
0.40798 0 0
0.454475 0 0
0.50251 0 0
0.550469 0 0
0.600763 0 0
0.658732 0 0
0.699413 0 0
0.735073 0 0
0.771267 0 0
0.809323 0 0
0.848981 0 0
0.890196 0 0
0.932525 0 0
0.975647 0 0
1 0 0
1 0 0
1 0 0
1 0 0
0 0.0672313 0
0 0.0653086 0
0 0.0630655 0
0 0.0609751 0
0 0.0585184 0
0.0202335 0.0549783 0
0.0502785 0.0508736 0
0.085832 0.046479 0
0.12549 0.0411536 0
0.163195 0.0350805 0
0.19823 0.0277867 0
0.242374 0.0165408 0
0.290318 0.002121 0
0.324849 0 0
0.363439 0 0
0.408057 0 0
0.455192 0 0
0.504463 0 0
0.553277 0 0
0.602579 0 0
0.660273 0 0
0.701228 0 0
0.736858 0 0
0.772992 0 0
0.811017 0 0
0.850645 0 0
0.891829 0 0
0.934157 0 0
0.977249 0 0
1 0 0
1 0 0
1 0 0
1 0 0
0 0.0920882 0
0 0.0901808 0
0 0.0881971 0
0 0.0858778 0
0 0.0834974 0
0.00854505 0.0802167 0
0.0394141 0.0758068 0
0.0753948 0.0712139 0
0.116442 0.0658274 0
0.156466 0.0596628 0
0.192782 0.0524605 0
0.235126 0.0420539 0
0.284962 0.0275425 0
0.322728 0.0138094 0
0.361807 0 0
0.407477 0 0
0.455467 0 0
0.505501 0 0
0.556344 0 0
0.605371 0 0
0.662425 0 0
0.703609 0 0
0.739147 0 0
0.775143 0 0
0.813092 0 0
0.852674 0 0
0.893843 0 0
0.936126 0 0
0.979217 0 0
1 0 0
1 0 0
1 0 0
1 0 0
0 0.121828 0
0 0.119936 0
0 0.117815 0
0 0.115862 0
0 0.113146 0
0 0.110048 0
0.0264744 0.105562 0
0.0627146 0.100786 0
0.104982 0.0951858 0
0.147631 0.088716 0
0.186252 0.0817426 0
0.227329 0.0721294 0
0.27892 0.057557 0
0.318105 0.0438392 0
0.357946 0.0268254 0
0.405356 0.00425727 0
0.454704 0 0
0.506386 0 0
0.558419 0 0
0.609827 0 0
0.665599 0 0
0.706645 0 0
0.741955 0 0
0.777798 0 0
0.815656 0 0
0.855177 0 0
0.896284 0 0
0.938552 0 0
0.981598 0 0
1 0 0
1 0 0
1 0 0
1 0 0
0 0.152621 0
0 0.150958 0
0 0.149447 0
0 0.147936 0
0 0.145785 0
0 0.143359 0
0.0096437 0.139971 0
0.0471809 0.135149 0
0.0895399 0.129824 0
0.136599 0.123812 0
0.178363 0.116091 0
0.218509 0.107271 0
0.271336 0.0928206 0
0.313848 0.0786603 0
0.35259 0.0626078 0
0.400046 0.04065 0
0.452613 0.0126345 0
0.505959 0 0
0.559747 0 0
0.613062 0 0
0.671458 0 0
0.710811 0 0
0.745586 0 0
0.781155 0 0
0.818845 0 0
0.858259 0 0
0.899306 0 0
0.941512 0 0
0.984512 0 0
1 0 0
1 0 0
1 0 0
1 0 0
0 0.183474 0.00224308
0 0.182361 0.00222782
0 0.181186 0.00216678
0 0.179736 0.00173953
0 0.178286 0.00154116
0 0.176394 0.00128176
0 0.173648 0.00047303
0.0276799 0.169696 0
0.0712902 0.165087 0
0.121324 0.159716 0
0.168093 0.153521 0
0.209567 0.146639 0
0.26183 0.134127 0
0.30869 0.119585 0
0.347082 0.104173 0
0.394293 0.0831159 0
0.446311 0.0562295 0
0.503182 0.0221103 0
0.559777 0 0
0.615015 0 0
0.676234 0 0
0.718059 0 0
0.750546 0 0
0.785443 0 0
0.822843 0 0
0.862074 0 0
0.902998 0 0
0.945129 0 0
0.988083 0 0
1 0 0
1 0 0
1 0 0
1 0 0
0 0.215473 0.00544747
0 0.214527 0.00549325
0 0.213291 0.00526436
0 0.212284 0.00526436
0 0.211032 0.005066
0 0.209293 0.004654
0 0.207233 0.00433356
0.00471504 0.204181 0.00321965
0.0495308 0.199481 0.00112917
0.100328 0.194583 0
0.153964 0.189044 0
0.198871 0.183413 0
0.248249 0.173983 0
0.301411 0.161395 0
0.33991 0.149752 0
0.386816 0.13135 0
0.439384 0.105562 0
0.495445 0.0736095 0
0.556237 0.0331731 0
0.615518 0 0
0.679194 0 0
0.726146 0 0
0.7579 0 0
0.791104 0 0
0.827893 0 0
0.866835 0 0
0.907576 0 0
0.949569 0 0
0.992432 0 0
1 0 0
1 0 0
1 0 0
1 0 0
0 0.25127 0.00172427
0 0.250065 0.00183108
0 0.249134 0.00201419
0 0.248096 0.00234989
0 0.246632 0.0024567
0 0.245075 0.00283818
0 0.242908 0.00276188
0 0.240024 0.00270085
0.017319 0.236088 0.00213626
0.070985 0.230045 0
0.130648 0.223728 0
0.183764 0.217594 0
0.231601 0.21088 0
0.291234 0.198993 0
0.332326 0.190127 0
0.377005 0.177234 0
0.429068 0.157641 0
0.485328 0.129671 0
0.546166 0.092668 0
0.609598 0.0460975 0
0.679911 0 0
0.731945 0 0
0.76968 0 0
0.799176 0 0
0.834485 0 0
0.872831 0 0
0.913252 0 0
0.955047 0 0
0.997772 0 0
1 0 0
1 0 0
1 0 0
1 0 0
0 0.288991 0
0 0.288228 0
0 0.28719 0
0 0.286229 0
0 0.2851 0
0 0.283391 0
0 0.281437 0
0 0.278599 0
0 0.274922 0
0.0229953 0.26981 0
0.0864424 0.263539 0
0.152941 0.25742 0
0.207584 0.251942 0
0.272633 0.242206 0
0.326162 0.233783 0
0.373709 0.224613 0
0.426505 0.209842 0
0.47985 0.188586 0
0.536095 0.157855 0
0.597009 0.114443 0
0.6701 0.0583047 0
0.73434 0 0
0.777691 0 0
0.813657 0 0
0.84358 0 0
0.880568 0 0
0.920378 0 0
0.961837 0 0
1 0 0
1 0 0
1 0 0
1 0 0
1 0 0
0 0.323934 0
0 0.323018 0
0 0.322072 0
0 0.321218 0
0 0.319997 0
0 0.318776 0
0 0.317098 0
0 0.315267 0
0 0.312779 0
0 0.30959 0
0.0391241 0.304784 0
0.116304 0.302556 0
0.186007 0.301915 0
0.24979 0.29836 0
0.316075 0.290944 0
0.365469 0.284367 0
0.424216 0.272099 0
0.486519 0.254307 0
0.546304 0.231388 0
0.601999 0.199619 0
0.660929 0.145663 0
0.722499 0.0750896 0
0.780743 0 0
0.824598 0 0
0.860121 0 0
0.89099 0 0
0.929488 0 0
0.970321 0 0
1 0 0
1 0 0
1 0 0
1 0 0
1 0 0
0 0.35938 0
0 0.35874 0
0 0.358083 0
0 0.357198 0
0 0.356435 0
0 0.355413 0
0 0.354177 0
0 0.352651 0
0 0.351308 0
0 0.350988 0
0 0.351736 0
0.0771496 0.350698 0
0.165759 0.349676 7.62951e-05
0.233417 0.34844 0.000946059
0.306767 0.340429 0
0.356115 0.334646 0
0.408972 0.325078 0
0.467567 0.311696 0
0.532357 0.293278 0
0.601465 0.269093 0
0.671229 0.238239 0
0.730419 0.189532 0
0.768246 0.101656 0
0.827512 0.0061799 0
0.875135 0 0
0.907591 0 0
0.941558 0 0
0.981094 0 0
1 0 0
1 0 0
1 0 0
1 0 0
1 0 0
0 0.400122 0
0 0.399634 0
0 0.398917 0
0 0.398505 0
0 0.398169 0
0 0.397772 0
0 0.398093 0
0 0.398886 0.000228885
0 0.400214 0.00256352
0 0.401694 0.00527962
0 0.402441 0.00735485
0.0171206 0.402243 0.00901808
0.113313 0.398047 0.00689708
0.202808 0.390127 0.00172427
0.27393 0.381567 0
0.340658 0.371786 0
0.393362 0.363882 0
0.453223 0.352407 0
0.513924 0.33875 0
0.575738 0.321981 0
0.643336 0.298848 0
0.723476 0.26511 0
0.777096 0.226795 0
0.825086 0.143084 0
0.877256 0.0132906 0
0.9299 0 0
0.959411 0 0
0.995178 0 0
1 0 0
1 0 0
1 0 0
1 0 0
1 0 0
0 0.445991 0
0 0.446433 0
0 0.446738 0
0 0.447501 0
0 0.448157 0
0 0.449409 0.000839246
0 0.450553 0.002533
0 0.45185 0.00442512
0 0.453422 0.00669871
0 0.454093 0.00839246
0 0.45481 0.0103609
0 0.45272 0.00962844
0.0268406 0.445396 0.00424201
0.135348 0.433753 0
0.225177 0.424872 0
0.310918 0.413672 0
0.369589 0.408408 0
0.434943 0.399191 0
0.501976 0.38735 0
0.569512 0.372946 0
0.634882 0.355444 0
0.703777 0.331624 0
0.756039 0.303288 0
0.816403 0.257572 0
0.879835 0.183032 0
0.931991 0.0209049 0
0.98822 0 0
1 0 0
1 0 0
1 0 0
1 0 0
1 0 0
1 0 0
0 0.500221 0
0 0.500938 0
0 0.501961 0
0 0.502953 0.000869764
0 0.503639 0.00187686
0 0.504753 0.00334173
0 0.505638 0.00448615
0 0.506539 0.00588998
0 0.507515 0.0075227
0 0.50779 0.00862135
0 0.505516 0.00726329
0 0.500511 0.00334173
0 0.493675 0
0.0303349 0.484108 0
0.160876 0.47335 0
0.257313 0.467353 0
0.344244 0.45919 0
0.411032 0.453452 0
0.483574 0.443885 0
0.556573 0.431724 0
0.627115 0.416815 0
0.704356 0.396033 0
0.758144 0.375479 0
0.801373 0.348913 0
0.861387 0.298772 0
0.924743 0.213626 0
0.992767 0.0297856 0
1 0 0
1 0 0
1 0 0
1 0 0
1 0 0
1 0 0
0 0.558129 0
0 0.558907 0
0 0.559533 0
0 0.560296 0.000595102
0 0.5608 0.00132753
0 0.561776 0.00256352
0 0.562493 0.00360113
0 0.562905 0.00422675
0 0.562112 0.00389105
0 0.55964 0.00201419
0 0.556085 0
0 0.551278 0
0 0.544961 0
0 0.538643 0
0.0409094 0.531365 0
0.192554 0.52282 0
0.303319 0.515709 0
0.381094 0.511528 0
0.459785 0.503838 0
0.537438 0.493324 0
0.613214 0.480995 0
0.693278 0.463966 0
0.756741 0.446983 0
0.808377 0.426505 0
0.858976 0.396628 0
0.909331 0.348394 0
0.978042 0.249668 0
1 0.0443732 0
1 0 0
1 0 0
1 0 0
1 0 0
1 0 0
0 0.617197 0
0 0.618021 0
0 0.618509 0
0 0.619211 0
0 0.619699 0
0 0.619883 0
0 0.619364 0
0 0.618204 0
0 0.616129 0
0 0.613321 0
0 0.609903 0
0 0.605356 0
0 0.600763 0
0 0.596918 0
0 0.592676 0
0.0591592 0.58584 0
0.226596 0.578454 0
0.344686 0.57052 0
0.426246 0.566445 0
0.511727 0.557733 0
0.594293 0.547173 0
0.675441 0.533913 0
0.750256 0.518654 0
0.805097 0.504128 0
0.859922 0.482689 0
0.917647 0.449088 0
0.970764 0.39823 0
1 0.293217 0
1 0.0589303 0
1 0 0
1 0 0
1 0 0
1 0 0
0 0.67895 0
0 0.679255 0
0 0.679545 0
0 0.679591 0
0 0.679118 0
0 0.678462 0
0 0.67718 0
0 0.675563 0
0 0.67364 0
0 0.671061 0
0 0.667781 0
0 0.664057 0
0 0.661311 0
0 0.658488 0
0 0.655848 0
0 0.652216 0
0.0835431 0.644236 0
0.264942 0.637629 0
0.383566 0.6309 0
0.47837 0.62443 0
0.569345 0.615137 0
0.654292 0.604639 0
0.740276 0.590509 0
0.798535 0.579965 0
0.854963 0.565072 0
0.914992 0.542031 0
0.978073 0.506416 0
1 0.44976 0
1 0.340063 0
1 0.0710765 0
1 0 0
1 0 0
1 0 0
0 0.743877 0
0 0.74403 0
0 0.743709 0
0 0.743389 0
0 0.742672 0
0 0.741833 0
0 0.740642 0
0 0.739178 0
0 0.737377 0
0 0.734966 0
0 0.732082 0
0 0.729519 0
0 0.727642 0
0 0.725978 0
0 0.724468 0
0 0.722438 0
0 0.718486 0
0.106767 0.709117 0
0.310552 0.700084 0
0.426642 0.694499 0
0.531624 0.685496 0
0.627192 0.674968 0
0.72221 0.661646 0
0.789532 0.652827 0
0.84712 0.642924 0
0.90692 0.627314 0
0.971145 0.602777 0
1 0.565301 0
1 0.505425 0
1 0.392844 0
1 0.0759136 0
1 0 0
1 0 0
0 0.804776 0
0 0.804959 0
0 0.804669 0
0 0.804395 0
0 0.803708 0
0 0.803037 0
0 0.802014 0
0 0.800732 0
0 0.799084 0
0 0.796963 0
0 0.794522 0
0 0.792599 0
0 0.791409 0
0 0.790631 0
0 0.790234 0
0 0.789563 0
0 0.787869 0
0 0.784375 0
0.145434 0.77319 0
0.362921 0.761349 0
0.478325 0.756771 0
0.587121 0.748165 0
0.685389 0.739178 0
0.773159 0.729778 0
0.837095 0.724025 0
0.902815 0.713542 0
0.96817 0.696437 0
1 0.669902 0
1 0.628199 0
1 0.562966 0
1 0.448966 0
1 0.076051 0
1 0 0
0 0.866926 0
0 0.86743 0
0 0.867948 0
0 0.868193 0
0 0.867933 0
0 0.867536 0
0 0.866636 0
0 0.865538 0
0 0.864149 0
0 0.862303 0
0 0.859785 0
0 0.857755 0
0 0.85655 0
0 0.856229 0
0 0.856474 0
0 0.856809 0
0 0.856306 0
0 0.855024 0
0 0.850828 0
0.197528 0.834791 0
0.419867 0.825193 0
0.553735 0.822187 0
0.669352 0.816236 0
0.774319 0.806348 0
0.837964 0.80296 0
0.894926 0.796155 0
0.954986 0.785016 0
1 0.766339 0
1 0.739055 0
1 0.700496 0
1 0.630259 0
1 0.501808 0
1 0.0736858 0
0 0.928985 0
0 0.929961 0
0 0.931243 0
0 0.932448 0
0 0.933532 0
0 0.93463 0
0 0.9355 0
0 0.935378 0
0 0.934401 0
0 0.932998 0
0 0.930922 0
0 0.928206 0
0 0.925963 0
0 0.925368 0
0 0.925612 0
0 0.926696 0
0 0.927581 0
0 0.92784 0
0 0.926528 0
0 0.919158 0
0.261311 0.90396 0
0.490333 0.896941 0
0.628321 0.88188 0
0.741283 0.866407 0
0.826749 0.855329 0
0.885008 0.849119 0
0.944137 0.840665 0
1 0.829053 0
1 0.813062 0
1 0.788479 0
1 0.748821 0
1 0.69041 0
1 0.559091 0
0 0.98822 0
0 0.990051 0
0 0.991638 0
0 0.993378 0
0 0.995315 0
0 0.997314 0
0 0.999542 0
0 1 0
0 1 0
0 1 0
0 1 0
0 1 0
0 1 0
0 1 0
0 0.999374 0
0 1 0
0 1 0
0 1 0
0 1 0
0 1 0
0 0.993622 0
0.319738 0.97055 0
0.541115 0.943755 0
0.683864 0.923323 0
0.801801 0.905226 0
0.868925 0.898482 0
0.930983 0.891173 0
0.9944 0.881712 0
1 0.869291 0
1 0.852872 0
1 0.830213 0
1 0.794156 0
1 0.733806 0
0 1 0
0 1 0
0 1 0
0 1 0
0 1 0
0 1 0
0 1 0
0 1 0
0 1 0
